X:693
T:Mrs. Norman McKeigan #2
C:Joe Buchanan's Scottish Tome - Page 219.2
I:219 2
Z:Carl Allison
R:Reel
L:1/8
M:4/4
K:D
D2 DG FAAB | defd g2 fe | dcBA BcdA | ((3Bcd) AF EDEF |
D2 DG FAAB | defd g2 fe | dcBA BcdA | ((3Bcd) AF ((3DDD) D2 :|
f | abaf defd | ((3fga) da f2 ef | abaf defd | ((3fga) f2 ((3eee) ef |
gbaf defd | ((3fga) da g2 fe | dcBA BcdA | ((3Bcd) AF ((3DDD) D2 :|

